X: 17972
T: Hugh Gillespie's
R: mazurka
M: 3/4
K: Amajor
|:E>A|c2 c>B A<c|e2 e2 B>c|d2 d>f e<d|c2 c2 E>A|
c2 c>B A<c|e2 e2 B>c|d>c d<B G>B|A2 A2:|
|:a>g|f2 d>f d<f|f>e c>e c<e|d2 B>d B<d|c>A c<e a>g|
f2 d>f d<f|f>e c>e c<e|d>c d<BG>E|A2 A2:|

